X:1
T: The Boston Caledonian Club's Jig
C:
R:Jig
Q:180
K:G
M:6/8
L:1/16
|:G2F2G2 G2B2d2|e2g2e2 d2g2d2|e2g2e2 d2B2G2|A2B2A2 d6|
G2F2G2 G2B2d2|e2g2e2 d2g2d2|e2g2e2 d2B2G2|A2G2A2 G6:|
|:g4f2 e2d2B2|g4f2 e2d2B2|d2e2f2 g2f2g2|a2b2g2 f2e2d2|
g4f2 e2d2B2|g4f2 e2d2B2|d2e2f2 g2f2g2|a2b2a2 g6:|
